packages/assets/static/images/icons/file-svg.svg

<svg width="24" height="24" viewBox="0 0 24 24" xmlns="http://www.w3.org/2000/svg">
<path d="M8.41895 19.1545C8.38972 19.4414 8.2973 19.7182 8.14833 19.9651C7.99936 20.212 7.79755 20.4228 7.55739 20.5824C7.07083 20.9067 6.46708 21.0005 5.9177 21.0005C5.43861 20.9975 4.96178 20.9345 4.49833 20.813C4.30903 20.7575 4.14919 20.6298 4.05344 20.4573C3.95768 20.2849 3.93372 20.0816 3.98673 19.8916C4.03975 19.7017 4.16547 19.5402 4.33668 19.4422C4.50789 19.3443 4.7108 19.3177 4.90145 19.3683C5.31208 19.4808 6.30302 19.6214 6.73427 19.3345C6.81677 19.2792 6.90583 19.192 6.93489 18.9661C6.9677 18.7158 6.86833 18.5817 5.73677 18.2545C4.8602 18.0014 3.39302 17.5767 3.58052 16.088C3.6097 15.8068 3.70042 15.5354 3.84624 15.2932C3.99206 15.051 4.1894 14.8438 4.42427 14.6864C5.53427 13.9364 7.30427 14.3761 7.50208 14.4277C7.69453 14.4783 7.85899 14.6032 7.9593 14.7751C8.0596 14.947 8.08752 15.1516 8.03692 15.3441C7.98632 15.5365 7.86135 15.701 7.68949 15.8013C7.51763 15.9016 7.31296 15.9295 7.12052 15.8789C6.70052 15.7692 5.6927 15.6389 5.26145 15.9314C5.20493 15.9696 5.15839 16.0207 5.12576 16.0806C5.09313 16.1405 5.07536 16.2073 5.07395 16.2755C5.06364 16.3599 5.06083 16.3777 5.17895 16.4536C5.39552 16.5933 5.7827 16.7049 6.15864 16.8136C7.07645 17.0789 8.62895 17.5317 8.41895 19.1545ZM20.4358 9.00049V11.2505C20.4358 11.4494 20.3568 11.6402 20.2162 11.7808C20.0755 11.9215 19.8847 12.0005 19.6858 12.0005C19.4869 12.0005 19.2962 11.9215 19.1555 11.7808C19.0148 11.6402 18.9358 11.4494 18.9358 11.2505V9.75049H14.4358C14.2369 9.75049 14.0462 9.67147 13.9055 9.53082C13.7648 9.39017 13.6858 9.1994 13.6858 9.00049V4.50049H5.43583V11.2505C5.43583 11.4494 5.35681 11.6402 5.21616 11.7808C5.07551 11.9215 4.88474 12.0005 4.68583 12.0005C4.48692 12.0005 4.29615 11.9215 4.1555 11.7808C4.01485 11.6402 3.93583 11.4494 3.93583 11.2505V4.50049C3.93583 4.10266 4.09386 3.72113 4.37517 3.43983C4.65647 3.15852 5.038 3.00049 5.43583 3.00049H14.4358C14.6345 3.00058 14.825 3.07948 14.9655 3.21986L20.2155 8.46986C20.2853 8.53949 20.3407 8.62219 20.3785 8.71324C20.4163 8.80429 20.4358 8.9019 20.4358 9.00049ZM15.1858 8.25049H17.8755L15.1858 5.5608V8.25049ZM13.939 14.2945C13.8462 14.2613 13.7478 14.2467 13.6494 14.2516C13.551 14.2564 13.4545 14.2806 13.3654 14.3227C13.2763 14.3648 13.1965 14.4241 13.1303 14.4971C13.0642 14.5702 13.013 14.6555 12.9799 14.7483L11.8108 18.0202L10.6418 14.7483C10.611 14.6527 10.5612 14.5642 10.4956 14.4882C10.4299 14.4121 10.3496 14.35 10.2595 14.3056C10.1694 14.2612 10.0713 14.2353 9.97097 14.2296C9.87066 14.2238 9.77022 14.2382 9.6756 14.272C9.58099 14.3058 9.49413 14.3583 9.42018 14.4263C9.34623 14.4943 9.2867 14.5765 9.24513 14.668C9.20356 14.7595 9.18079 14.8583 9.17817 14.9588C9.17555 15.0592 9.19314 15.1592 9.22989 15.2527L11.1049 20.5027C11.1569 20.6484 11.2527 20.7745 11.3791 20.8637C11.5056 20.9528 11.6566 21.0007 11.8113 21.0007C11.966 21.0007 12.117 20.9528 12.2435 20.8637C12.3699 20.7745 12.4657 20.6484 12.5177 20.5027L14.3927 15.2527C14.4595 15.0654 14.4492 14.8594 14.3641 14.6797C14.279 14.5 14.1261 14.3615 13.939 14.2945ZM19.6858 17.2505H18.9358C18.7369 17.2505 18.5462 17.3295 18.4055 17.4702C18.2648 17.6108 18.1858 17.8016 18.1858 18.0005C18.1858 18.1994 18.2648 18.3902 18.4055 18.5308C18.5462 18.6715 18.7369 18.7505 18.9358 18.7505V19.2464C18.7198 19.4099 18.4567 19.499 18.1858 19.5005C17.359 19.5005 16.6858 18.6567 16.6858 17.6255C16.6858 16.5942 17.359 15.7505 18.1858 15.7505C18.4383 15.7515 18.6846 15.8293 18.8918 15.9736C19.0567 16.081 19.2571 16.1193 19.45 16.0802C19.6428 16.0411 19.8126 15.9278 19.9227 15.7647C20.0328 15.6016 20.0743 15.4018 20.0384 15.2083C20.0026 15.0149 19.8921 14.8432 19.7308 14.7305C19.2755 14.4194 18.7373 14.2522 18.1858 14.2505C16.5321 14.2505 15.1858 15.7645 15.1858 17.6255C15.1858 19.4864 16.5321 21.0005 18.1858 21.0005C18.5695 20.9974 18.9485 20.916 19.2996 20.7612C19.6507 20.6064 19.9666 20.3816 20.2277 20.1005C20.3613 19.9609 20.4358 19.7752 20.4358 19.582V18.0005C20.4358 17.8016 20.3568 17.6108 20.2162 17.4702C20.0755 17.3295 19.8847 17.2505 19.6858 17.2505Z"/>
</svg>

<svg viewBox="0 0 24 24" xmlns="http://www.w3.org/2000/svg" aria-hidden="true" fill="currentColor"><path d="M8.419 19.155a1.95 1.95 0 0 1-.862 1.427c-.486.325-1.09.418-1.64.418a5.7 5.7 0 0 1-1.419-.187.75.75 0 0 1 .403-1.445c.411.113 1.402.253 1.833-.034.083-.055.172-.142.2-.368.034-.25-.066-.384-1.197-.712-.877-.253-2.344-.677-2.156-2.166a1.93 1.93 0 0 1 .843-1.402c1.11-.75 2.88-.31 3.078-.258a.75.75 0 1 1-.381 1.45c-.42-.109-1.428-.24-1.86.053a.43.43 0 0 0-.187.345c-.01.084-.013.102.105.178.217.14.604.25.98.36.917.265 2.47.718 2.26 2.34M20.436 9v2.25a.75.75 0 1 1-1.5 0v-1.5h-4.5a.75.75 0 0 1-.75-.75V4.5h-8.25v6.75a.75.75 0 1 1-1.5 0V4.5a1.5 1.5 0 0 1 1.5-1.5h9a.75.75 0 0 1 .53.22l5.25 5.25a.75.75 0 0 1 .22.53m-5.25-.75h2.69l-2.69-2.69zm-1.247 6.044a.75.75 0 0 0-.96.454l-1.168 3.272-1.17-3.272a.75.75 0 1 0-1.411.505l1.875 5.25a.75.75 0 0 0 1.413 0l1.875-5.25a.75.75 0 0 0-.454-.959m5.747 2.956h-.75a.75.75 0 0 0 0 1.5v.496c-.216.164-.48.253-.75.255-.827 0-1.5-.844-1.5-1.876 0-1.03.673-1.874 1.5-1.874.252 0 .499.078.706.223a.75.75 0 0 0 .839-1.244 2.75 2.75 0 0 0-1.545-.48c-1.654 0-3 1.515-3 3.375s1.346 3.375 3 3.375a2.82 2.82 0 0 0 2.042-.9.75.75 0 0 0 .208-.518V18a.75.75 0 0 0-.75-.75"/></svg>
